X:1
T:Leadenhall, 11.11.11.11
T:Leadenhall, 11.11.11.11
T:Charles Spurgeon Brown, 1899
T:Public Domain Courtesy of the Cyber Hymnal™
C:Charles Spurgeon Brown, 1899
Z:Public Domain
Z:Courtesy of the Cyber Hymnal™
%%score ( 1 2 ) ( 3 4 )
L:1/8
Q:1/4=83
M:4/4
K:D
V:1 treble 
V:2 treble 
V:3 bass 
V:4 bass 
V:1
 [DF][DA][DF][DA] [DB]2 [DB]2 | [DF][DA][DF][DA] [Gc]4 | [Gd][Gc][GB][Gd] | (cB) [GA]2 | %4
 [Gc][GB][GA][GB] [FA]4 | [DF][DA][DF][DA] [DB]2 [DB]2 | [DF][DA][DF][DA] [Gc]4 | %7
 [Ge][Gd][Gc][GB] (dB) [FA]2 | [DA][EG][DF][CE] D4 |] %9
V:2
 x8 | x8 | x4 | G2 x2 | x8 | x8 | x8 | x4 G2 x2 | x4 D4 |] %9
V:3
 [D,A,][F,A,][D,A,][F,A,] G,2 G,2 | [D,A,][F,A,][D,A,][F,A,] [E,A,]4 | [E,A,][E,A,][E,A,][E,A,] | %3
 (A,B,) [E,C]2 | [E,A,][E,B,][E,C][E,A,] [D,D]4 | [D,A,][F,A,][D,A,][F,A,] G,2 G,2 | %6
 [D,A,][F,A,][D,A,][F,A,] [E,A,]4 | [C,A,][A,,A,][C,A,][C,A,] [D,B,]2 [D,D]2 | %8
 [G,B,][G,B,]A,[A,,G,] [D,F,]4 |] %9
V:4
 x4 G,2 G,2 | x8 | x4 | E,2 x2 | x8 | x4 G,2 G,2 | x8 | x8 | x2 A, x5 |] %9

